X:69
T:Reel 69
M:4/4
K:Gmaj
L:1/8
G>B (3BAB cBAG|d>B (3BAB g2fg| (3efe dB ecBG|A>B (3AFA e2Bc|A>B (3BAB cBAB|G>D (3GFG d2BG|c>A (3AGA BGAG|EGGG G2:||:ef|g>G (3GGG BGdG|B>G (3GGG G2AB|c>A (3AAA EAAA|cAAa AcBA|G>G (3GGG BGGB|DGGB g2fg|efge dBGA|BGAF G2|Bd|g2fg agfa|gfge dBAG|cABA cAag|eaag aega| (3gag af efgd|BGGB AGED|EGAG cdef| (3gfe dB c2|
